packages/tokens/icons/size/size16Px.svg

<svg viewBox="0 0 16 16" fill="none" xmlns="http://www.w3.org/2000/svg" width="1em" height="1em"><path fill-rule="evenodd" clip-rule="evenodd" d="M6.85355 6.14645L3.70711 3L6.5 3C6.77614 3 7 2.77614 7 2.5C7 2.22386 6.77614 2 6.5 2L2.5 2C2.36739 2 2.24021 2.05268 2.14645 2.14645C2.05268 2.24022 2 2.36739 2 2.5L2 6.5C2 6.77614 2.22386 7 2.5 7C2.77614 7 3 6.77614 3 6.5L3 3.70711L6.14645 6.85355C6.34171 7.04882 6.65829 7.04882 6.85355 6.85355C7.04882 6.65829 7.04882 6.34171 6.85355 6.14645ZM9.14645 6.14645C8.95118 6.34171 8.95118 6.65829 9.14645 6.85355C9.34171 7.04882 9.65829 7.04882 9.85355 6.85355L13 3.70711V6.5C13 6.77614 13.2239 7 13.5 7C13.7761 7 14 6.77614 14 6.5V2.5C14 2.36739 13.9473 2.24021 13.8536 2.14645C13.7598 2.05268 13.6326 2 13.5 2L9.5 2C9.22386 2 9 2.22386 9 2.5C9 2.77614 9.22386 3 9.5 3L12.2929 3L9.14645 6.14645ZM12.2929 13L9.14645 9.85355C8.95118 9.65829 8.95118 9.34171 9.14645 9.14645C9.34171 8.95118 9.65829 8.95118 9.85355 9.14645L13 12.2929V9.5C13 9.22386 13.2239 9 13.5 9C13.7761 9 14 9.22386 14 9.5V13.5C14 13.6326 13.9473 13.7598 13.8536 13.8536C13.7598 13.9473 13.6326 14 13.5 14L9.5 14C9.22386 14 9 13.7761 9 13.5C9 13.2239 9.22386 13 9.5 13H12.2929ZM6.85355 9.85355C7.04882 9.65829 7.04882 9.34171 6.85355 9.14645C6.65829 8.95118 6.34171 8.95118 6.14645 9.14645L3 12.2929L3 9.5C3 9.22386 2.77614 9 2.5 9C2.22386 9 2 9.22386 2 9.5L2 13.5C2 13.6326 2.05268 13.7598 2.14645 13.8536C2.24021 13.9473 2.36739 14 2.5 14L6.5 14C6.77614 14 7 13.7761 7 13.5C7 13.2239 6.77614 13 6.5 13H3.70711L6.85355 9.85355Z" fill="currentColor"/></svg>

<svg xmlns="http://www.w3.org/2000/svg" fill="none" viewBox="0 0 16 16" width="1em" height="1em"><path fill="currentColor" fill-rule="evenodd" d="M6.854 6.146 3.707 3H6.5a.5.5 0 0 0 0-1h-4a.5.5 0 0 0-.5.5v4a.5.5 0 0 0 1 0V3.707l3.146 3.147a.5.5 0 1 0 .708-.708Zm2.292 0a.5.5 0 1 0 .708.708L13 3.707V6.5a.5.5 0 0 0 1 0v-4a.5.5 0 0 0-.5-.5h-4a.5.5 0 0 0 0 1h2.793L9.146 6.146ZM12.293 13 9.146 9.854a.5.5 0 1 1 .708-.708L13 12.293V9.5a.5.5 0 0 1 1 0v4a.5.5 0 0 1-.5.5h-4a.5.5 0 0 1 0-1h2.793Zm-5.44-3.146a.5.5 0 1 0-.707-.708L3 12.293V9.5a.5.5 0 0 0-1 0v4a.5.5 0 0 0 .5.5h4a.5.5 0 0 0 0-1H3.707l3.147-3.146Z" clip-rule="evenodd"/></svg>
